svgs/sharp-light/bread-slice.svg

<svg xmlns="http://www.w3.org/2000/svg" viewBox="0 0 512 512"><!--! Font Awesome Pro 6.6.0 by @fontawesome - https://fontawesome.com License - https://fontawesome.com/license (Commercial License) Copyright 2024 Fonticons, Inc. --><path d="M96 224l0 32 0 192 320 0 0-192 0-32 32 0c17.7 0 32-14.3 32-32c0-44.3-32.4-76.2-84.6-98.6C344.1 71.4 284.5 64 256 64s-88.1 7.4-139.4 29.4C64.4 115.8 32 147.7 32 192c0 17.7 14.3 32 32 32l32 0zM448 448l0 32-32 0L96 480l-32 0 0-32 0-160 0-32c-35.3 0-64-28.7-64-64C0 64 192 32 256 32s256 32 256 160c0 35.3-28.7 64-64 64l0 32 0 160z"/></svg>

<svg xmlns="http://www.w3.org/2000/svg" viewBox="0 0 512 512"><!--! Font Awesome Pro 6.4.0 by @fontawesome - https://fontawesome.com License - https://fontawesome.com/license (Commercial License) Copyright 2023 Fonticons, Inc. --><path d="M96 224v32V448H416V256 224h32c17.7 0 32-14.3 32-32c0-44.3-32.4-76.2-84.6-98.6C344.1 71.4 284.5 64 256 64s-88.1 7.4-139.4 29.4C64.4 115.8 32 147.7 32 192c0 17.7 14.3 32 32 32H96zM448 448v32H416 96 64V448 288 256c-35.3 0-64-28.7-64-64C0 64 192 32 256 32s256 32 256 160c0 35.3-28.7 64-64 64v32V448z"/></svg>
